app/ui/static/images/icons/solid/device-tablet.svg

<svg width="20" height="20" viewBox="0 0 20 20" fill="none" xmlns="http://www.w3.org/2000/svg">
<path fill-rule="evenodd" clip-rule="evenodd" d="M5 1C3.34315 1 2 2.34315 2 4V16C2 17.6569 3.34315 19 5 19H15C16.6569 19 18 17.6569 18 16V4C18 2.34315 16.6569 1 15 1H5ZM3.5 4C3.5 3.17157 4.17157 2.5 5 2.5H15C15.8284 2.5 16.5 3.17157 16.5 4V16C16.5 16.8284 15.8284 17.5 15 17.5H5C4.17157 17.5 3.5 16.8284 3.5 16V4ZM8.75 15.5C8.33579 15.5 8 15.8358 8 16.25C8 16.6642 8.33579 17 8.75 17H11.25C11.6642 17 12 16.6642 12 16.25C12 15.8358 11.6642 15.5 11.25 15.5H8.75Z" fill="#0F172A"/>
</svg>

<svg xmlns="http://www.w3.org/2000/svg" viewBox="0 0 20 20" fill="currentColor" aria-hidden="true">
  <path fill-rule="evenodd" d="M5 1a3 3 0 00-3 3v12a3 3 0 003 3h10a3 3 0 003-3V4a3 3 0 00-3-3H5zM3.5 4A1.5 1.5 0 015 2.5h10A1.5 1.5 0 0116.5 4v12a1.5 1.5 0 01-1.5 1.5H5A1.5 1.5 0 013.5 16V4zm5.25 11.5a.75.75 0 000 1.5h2.5a.75.75 0 000-1.5h-2.5z" clip-rule="evenodd"/>
</svg>
